usr/share/icons/biglinux-icons-material/symbolic/actions/go-home-symbolic.svg

<svg width="16" height="16" version="1.1" xmlns="http://www.w3.org/2000/svg">
 <defs>
  <style id="current-color-scheme" type="text/css">.ColorScheme-Text { color:#363636; }</style>
 </defs>
 <path d="m8 1.0059c-0.12781 0-0.25558 0.048554-0.35352 0.14648l-7.0703 7.0723c-0.19587 0.19587-0.19587 0.51116 0 0.70703s0.51116 0.19587 0.70703 0l0.7168-0.7168v6.7852c0 0.554 0.446 1 1 1h4v-4c0-0.554 0.446-1 1-1s1 0.446 1 1v4h4c0.554 0 1-0.446 1-1v-6.7852l0.7168 0.7168c0.19587 0.19587 0.51116 0.19587 0.70703 0s0.19587-0.51116 0-0.70703l-7.0703-7.0723c-0.097934-0.097934-0.22571-0.14648-0.35352-0.14648zm0 1.209 5 5v7.7852h-3v-3c0-1.108-0.892-2-2-2s-2 0.892-2 2v3h-3v-7.7852z" fill="#363636"/>
</svg>

<svg xmlns="http://www.w3.org/2000/svg" width="16" height="16"><defs><style id="current-color-scheme" type="text/css">.ColorScheme-Text{color:#dedede}</style></defs><path fill="#dedede" d="M8 1.006a.498.498 0 0 0-.354.146L.576 8.225a.499.499 0 1 0 .707.707L2 8.215V15c0 .554.446 1 1 1h4v-4c0-.554.446-1 1-1s1 .446 1 1v4h4c.554 0 1-.446 1-1V8.215l.717.717a.499.499 0 1 0 .707-.707l-7.07-7.073A.498.498 0 0 0 8 1.006zm0 1.209 5 5V15h-3v-3c0-1.108-.892-2-2-2s-2 .892-2 2v3H3V7.215z"/></svg>
